X: 1
T: The International Appalachian Trail
R: march
M: 4/4
L: 1/8
K: Bmin
|:E3 E3 G2|E2 D2 B,2 D2|E3 E G2 A2|B6 FG|
A3 A3 G2|F2 E2 D4|F3 F3 E2|D2 B,2 A,2 D2|
E3 E3 G2|E2 D2 B,2 D2|E3 E G2 A2|B3 d BA G2|A8|
B, D3 F4|B, D2 F2 G FD|F2 E2 E2 D2|1 E3 B,2 B, D2:|2 E3 B2 B d2||
|:e3 e3 ed|ed B2 B2 c2|d3 d2 c BA|F2 E2 D4|
C2 E2 A2 B2|c3 c2 d cA|c2 B2 B2 A2|B3 B2 B d|
e3 e3 ed|ed B2 B2 c2|d3 d2 c BA|F2 E2 D4|
B, D3 F4|B, D2 F2 G FD|F2 E2 E2 D2:|

